X: 20809
T: Johnny Spillane's Favourite
R: polka
M: 2/4
K: Dmajor
|:B/|Ad f/e/d/c/|dF A>d|cE G>B|AD F>G|
Ad f/e/d/c/|dF A>d|cB GE|ED D3/2:|
|:^g/|af de/d/|cb b(3c/b/^a/|bB c(3d/c/B/|Aa a>^g|
af de/d/|cb bb/^a/|bB cd|ed d3/2:|

